public/icons/tech-stack/nodejs.svg

<svg width="107" height="65" viewBox="0 0 107 65" fill="none" xmlns="http://www.w3.org/2000/svg">
<g clip-path="url(#clip0_34_359)">
<path d="M52.896 64.8124C52.5339 64.8124 52.1957 64.7168 51.8816 64.5493L48.6693 62.6593C48.1861 62.396 48.4277 62.3004 48.5728 62.2525C49.2248 62.0373 49.3456 61.9892 50.0219 61.6067C50.0944 61.5587 50.1911 61.5827 50.2635 61.6305L52.7272 63.0899C52.8237 63.1377 52.9445 63.1377 53.0168 63.0899L62.6541 57.5632C62.7507 57.5154 62.7992 57.4196 62.7992 57.3001V46.2708C62.7992 46.151 62.7507 46.0555 62.6541 46.0075L53.0168 40.5049C52.9203 40.4568 52.7995 40.4568 52.7272 40.5049L43.0899 46.0075C42.9933 46.0553 42.9448 46.175 42.9448 46.2706V57.2999C42.9448 57.3958 42.9933 57.5152 43.0899 57.5632L45.7226 59.0704C47.1477 59.7881 48.0413 58.9508 48.0413 58.1135V47.2276C48.0413 47.0842 48.1621 46.9405 48.3312 46.9405H49.5629C49.708 46.9405 49.8528 47.0601 49.8528 47.2276V58.1135C49.8528 60.0034 48.8141 61.1041 47.0027 61.1041C46.4472 61.1041 46.0125 61.1041 44.7805 60.5058L42.2445 59.0704C41.6165 58.7117 41.2301 58.0416 41.2301 57.3239V46.2946C41.2301 45.5769 41.6165 44.9069 42.2445 44.5481L51.8816 39.0215C52.4856 38.6865 53.3069 38.6865 53.9106 39.0215L63.5478 44.5481C64.1758 44.9069 64.5624 45.5769 64.5624 46.2946V57.3239C64.5624 58.0416 64.1758 58.7117 63.5478 59.0704L53.9106 64.5971C53.5965 64.7408 53.2342 64.8124 52.896 64.8124ZM55.867 57.2283C51.6402 57.2283 50.7707 55.3143 50.7707 53.6875C50.7707 53.5438 50.8915 53.4003 51.0605 53.4003H52.3165C52.4613 53.4003 52.5821 53.496 52.5821 53.6396C52.7754 54.9075 53.3309 55.5296 55.8912 55.5296C57.92 55.5296 58.7898 55.075 58.7898 53.9984C58.7898 53.3763 58.548 52.9219 55.384 52.6108C52.7512 52.3475 51.1088 51.7735 51.1088 49.692C51.1088 47.754 52.7514 46.6056 55.5048 46.6056C58.5963 46.6056 60.1181 47.6584 60.3114 49.9549C60.3114 50.027 60.2872 50.0986 60.2389 50.1704C60.1904 50.2182 60.1181 50.2661 60.0456 50.2661H58.7896C58.6688 50.2661 58.548 50.1704 58.524 50.0508C58.2341 48.735 57.4853 48.3043 55.5048 48.3043C53.2826 48.3043 53.0168 49.07 53.0168 49.644C53.0168 50.3379 53.3309 50.5532 56.3259 50.9359C59.2968 51.3189 60.6978 51.8691 60.6978 53.9265C60.6736 56.032 58.9346 57.2283 55.867 57.2283Z" fill="#539E43"/>
<path d="M22.9941 21.6761C22.9941 21.2455 22.7525 20.8386 22.3661 20.6233L12.1251 14.7857C11.9558 14.6898 11.7627 14.642 11.5696 14.618H11.4728C11.2797 14.618 11.0864 14.6898 10.9173 14.7857L0.676277 20.6233C0.289656 20.8386 0.0482788 21.2453 0.0482788 21.6761L0.072521 37.3707C0.072521 37.586 0.193314 37.8013 0.386416 37.8971C0.579726 38.0168 0.821103 38.0168 0.99038 37.8971L7.07705 34.4519C7.46346 34.2366 7.70505 33.8299 7.70505 33.3993V26.0543C7.70505 25.6237 7.94642 25.2169 8.33305 25.0017L10.9173 23.5183C11.1107 23.3986 11.328 23.3506 11.5453 23.3506C11.7627 23.3506 11.98 23.3986 12.1493 23.5183L14.7336 25.0017C15.1202 25.2169 15.3616 25.6235 15.3616 26.0543V33.3993C15.3616 33.8299 15.6032 34.2366 15.9896 34.4519L22.0763 37.8971C22.1703 37.9558 22.2792 37.9869 22.3903 37.9869C22.5014 37.9869 22.6102 37.9558 22.7043 37.8971C22.8976 37.8013 23.0184 37.586 23.0184 37.3707L22.9941 21.6761ZM72.2189 0.071883C72.0258 -0.023961 71.7843 -0.023961 71.615 0.071883C71.4219 0.191533 71.3011 0.382807 71.3011 0.598093V16.1494C71.3011 16.2929 71.2288 16.4364 71.0837 16.5322C70.9389 16.6038 70.7939 16.6038 70.649 16.5322L68.0888 15.0728C67.9011 14.9669 67.6888 14.9113 67.4728 14.9113C67.2568 14.9113 67.0445 14.9669 66.8568 15.0728L56.6157 20.9344C56.2293 21.1497 55.9878 21.5565 55.9878 21.987V33.6862C55.9878 34.1168 56.2293 34.5237 56.6157 34.739L66.8568 40.6006C67.0445 40.7065 67.2568 40.7622 67.4728 40.7622C67.6888 40.7622 67.9011 40.7065 68.0888 40.6006L78.3299 34.739C78.7163 34.5237 78.9578 34.117 78.9578 33.6862V4.5219C78.9578 4.06731 78.7163 3.66075 78.3299 3.44526L72.2189 0.071883ZM71.277 29.8344C71.277 29.9541 71.2288 30.0497 71.132 30.0975L67.6299 32.1072C67.5809 32.1308 67.5272 32.1431 67.4728 32.1431C67.4184 32.1431 67.3647 32.1308 67.3158 32.1072L63.8136 30.0975C63.7168 30.0497 63.6686 29.9301 63.6686 29.8344V25.815C63.6686 25.6953 63.7168 25.5997 63.8136 25.5519L67.3158 23.5421C67.3647 23.5184 67.4184 23.5061 67.4728 23.5061C67.5272 23.5061 67.5809 23.5184 67.6299 23.5421L71.132 25.5519C71.2288 25.5995 71.277 25.7194 71.277 25.815V29.8344ZM106.299 25.7194C106.686 25.5041 106.903 25.0973 106.903 24.6665V21.8196C106.903 21.389 106.662 20.9822 106.299 20.7669L96.1309 14.9294C95.9432 14.8235 95.7309 14.7678 95.5149 14.7678C95.299 14.7678 95.0867 14.8235 94.899 14.9294L84.6579 20.7907C84.2713 21.006 84.0299 21.4128 84.0299 21.8434V33.5427C84.0299 33.9733 84.2715 34.3801 84.6579 34.5954L94.8264 40.3373C95.2131 40.5526 95.672 40.5526 96.0344 40.3373L102.193 36.9403C102.387 36.8445 102.507 36.6292 102.507 36.4139C102.507 36.1986 102.387 35.9833 102.193 35.8875L91.904 30.0259C91.7107 29.9063 91.5899 29.715 91.5899 29.4997V25.8392C91.5899 25.6239 91.7107 25.4086 91.904 25.3128L95.1163 23.4944C95.2104 23.4358 95.3192 23.4047 95.4303 23.4047C95.5414 23.4047 95.6503 23.4358 95.7443 23.4944L98.9568 25.3128C99.1501 25.4324 99.2707 25.6237 99.2707 25.8392V28.7102C99.2707 28.9255 99.3915 29.1408 99.5848 29.2364C99.6788 29.295 99.7877 29.3261 99.8988 29.3261C100.01 29.3261 100.119 29.295 100.213 29.2364L106.299 25.7194Z" fill="white"/>
<path d="M95.3579 25.169C95.3938 25.1455 95.4358 25.1331 95.4787 25.1331C95.5217 25.1331 95.5637 25.1455 95.5995 25.169L97.556 26.2934C97.6283 26.3414 97.6766 26.4131 97.6766 26.5087V28.7578C97.6766 28.8535 97.6285 28.9253 97.556 28.9731L95.5995 30.0976C95.5637 30.121 95.5217 30.1335 95.4787 30.1335C95.4358 30.1335 95.3938 30.121 95.3579 30.0976L93.4016 28.9731C93.3291 28.9253 93.2808 28.8535 93.2808 28.7578V26.5089C93.2808 26.4131 93.3289 26.3412 93.4016 26.2936L95.3579 25.169Z" fill="#539E43"/>
<path d="M40.119 14.9771C39.9313 14.8713 39.719 14.8157 39.5031 14.8157C39.2871 14.8157 39.0749 14.8713 38.8872 14.9771L28.7186 20.7905C28.332 21.0058 28.1147 21.4126 28.1147 21.8431V33.4947C28.1147 33.9253 28.3563 34.332 28.7186 34.5473L38.8872 40.3611C39.0749 40.4669 39.2871 40.5226 39.5031 40.5226C39.719 40.5226 39.9313 40.4669 40.119 40.3611L50.2877 34.5473C50.6741 34.332 50.8917 33.9253 50.8917 33.4947V21.8433C50.8917 21.4128 50.6499 21.006 50.2877 20.7907L40.119 14.9771Z" fill="url(#paint0_linear_34_359)"/>
</g>
<defs>
<linearGradient id="paint0_linear_34_359" x1="1581.23" y1="464.352" x2="481.687" y2="2208.57" gradientUnits="userSpaceOnUse">
<stop stop-color="#41873F"/>
<stop offset="0.3288" stop-color="#418B3D"/>
<stop offset="0.6352" stop-color="#419637"/>
<stop offset="0.9319" stop-color="#3FA92D"/>
<stop offset="1" stop-color="#3FAE2A"/>
</linearGradient>
<clipPath id="clip0_34_359">
<rect width="107" height="65" fill="white"/>
</clipPath>
</defs>
</svg>

<svg xmlns="http://www.w3.org/2000/svg" width="107" height="65" fill="none" xmlns:v="https://vecta.io/nano"><g clip-path="url(#B)"><path d="M52.896 64.812c-.362 0-.7-.096-1.014-.263l-3.212-1.89c-.483-.263-.242-.359-.096-.407.652-.215.773-.263 1.449-.646.072-.048.169-.024.242.024l2.464 1.459c.096.048.217.048.29 0l9.637-5.527c.097-.048.145-.144.145-.263V46.271c0-.12-.048-.215-.145-.263l-9.637-5.503c-.097-.048-.217-.048-.29 0l-9.637 5.503c-.097.048-.145.167-.145.263V57.3c0 .096.048.215.145.263l2.633 1.507c1.425.718 2.319-.12 2.319-.957V47.228c0-.143.121-.287.29-.287h1.232c.145 0 .29.12.29.287v10.886c0 1.89-1.039 2.991-2.85 2.991-.555 0-.99 0-2.222-.598l-2.536-1.435c-.628-.359-1.014-1.029-1.014-1.746V46.295c0-.718.386-1.388 1.014-1.747l9.637-5.527c.604-.335 1.425-.335 2.029 0l9.637 5.527c.628.359 1.015 1.029 1.015 1.747v11.029c0 .718-.387 1.388-1.015 1.746l-9.637 5.527a2.49 2.49 0 0 1-1.015.215zm2.971-7.584c-4.227 0-5.096-1.914-5.096-3.541 0-.144.121-.287.29-.287h1.256c.145 0 .266.096.266.239.193 1.268.749 1.89 3.309 1.89 2.029 0 2.899-.455 2.899-1.531 0-.622-.242-1.076-3.406-1.388-2.633-.263-4.275-.837-4.275-2.919 0-1.938 1.643-3.086 4.396-3.086 3.091 0 4.613 1.053 4.807 3.349 0 .072-.024.144-.072.215-.049.048-.121.096-.193.096H58.79c-.121 0-.242-.096-.266-.215-.29-1.316-1.039-1.747-3.019-1.747-2.222 0-2.488.766-2.488 1.34 0 .694.314.909 3.309 1.292 2.971.383 4.372.933 4.372 2.991-.024 2.105-1.763 3.302-4.831 3.302z" fill="#539e43"/><path d="M22.994 21.676c0-.431-.242-.838-.628-1.053l-10.241-5.838c-.169-.096-.362-.144-.556-.168h-.097c-.193 0-.386.072-.556.168L.676 20.623c-.387.215-.628.622-.628 1.053l.024 15.695c0 .215.121.431.314.526.193.12.435.12.604 0l6.087-3.445c.386-.215.628-.622.628-1.053v-7.345c0-.431.241-.837.628-1.053l2.584-1.483a1.18 1.18 0 0 1 .628-.168c.217 0 .435.048.604.168l2.584 1.483c.387.215.628.622.628 1.053v7.345c0 .431.242.837.628 1.053l6.087 3.445c.094.059.203.09.314.09s.22-.031.314-.09c.193-.096.314-.311.314-.526l-.024-15.695zM72.219.072a.67.67 0 0 0-.604 0c-.193.12-.314.311-.314.526v15.551c0 .143-.072.287-.217.383-.145.072-.29.072-.435 0l-2.56-1.459c-.188-.106-.4-.162-.616-.162s-.428.056-.616.162l-10.241 5.862c-.386.215-.628.622-.628 1.053v11.699c0 .431.242.837.628 1.053l10.241 5.862c.188.106.4.162.616.162s.428-.056.616-.162l10.241-5.862c.386-.215.628-.622.628-1.053V4.522c0-.455-.242-.861-.628-1.077L72.219.072zm-.942 29.763c0 .12-.048.215-.145.263l-3.502 2.01c-.049.024-.103.036-.157.036a.36.36 0 0 1-.157-.036l-3.502-2.01c-.097-.048-.145-.167-.145-.263v-4.019c0-.12.048-.215.145-.263l3.502-2.01a.36.36 0 0 1 .314 0l3.502 2.01c.097.048.145.168.145.263v4.019zm35.022-4.115c.387-.215.604-.622.604-1.053V21.82c0-.431-.241-.837-.604-1.053l-10.168-5.837c-.188-.106-.4-.162-.616-.162s-.428.056-.616.162l-10.241 5.861c-.387.215-.628.622-.628 1.053v11.699c0 .431.242.837.628 1.053l10.169 5.742a1.21 1.21 0 0 0 1.208 0l6.159-3.397c.194-.096.314-.311.314-.526s-.12-.431-.314-.526l-10.289-5.862c-.193-.12-.314-.311-.314-.526v-3.66c0-.215.121-.431.314-.526l3.212-1.818c.094-.059.203-.09.314-.09s.22.031.314.09l3.213 1.818c.193.12.314.311.314.526v2.871c0 .215.121.431.314.526.094.059.203.09.314.09s.22-.031.314-.09l6.086-3.517z" fill="#fff"/><path d="M95.358 25.169a.22.22 0 0 1 .242 0l1.956 1.124c.072.048.121.12.121.215v2.249a.25.25 0 0 1-.121.215L95.6 30.098a.22.22 0 0 1-.121.036c-.043 0-.085-.013-.121-.036l-1.956-1.125a.25.25 0 0 1-.121-.215v-2.249a.25.25 0 0 1 .121-.215l1.956-1.125z" fill="#539e43"/><path d="M40.119 14.977c-.188-.106-.4-.161-.616-.161s-.428.056-.616.161l-10.169 5.813c-.387.215-.604.622-.604 1.053v11.652c0 .431.242.837.604 1.053l10.169 5.814c.188.106.4.161.616.161s.428-.056.616-.161l10.169-5.814c.386-.215.604-.622.604-1.053V21.843c0-.43-.242-.837-.604-1.053l-10.169-5.814z" fill="url(#A)"/></g><defs><linearGradient id="A" x1="1581.23" y1="464.352" x2="481.687" y2="2208.57" gradientUnits="userSpaceOnUse"><stop stop-color="#41873f"/><stop offset=".329" stop-color="#418b3d"/><stop offset=".635" stop-color="#419637"/><stop offset=".932" stop-color="#3fa92d"/><stop offset="1" stop-color="#3fae2a"/></linearGradient><clipPath id="B"><path fill="#fff" d="M0 0h107v65H0z"/></clipPath></defs></svg>
